assets/img/braze_icons/file-shield-01.svg

<svg fill="none" height="24" viewBox="0 0 24 24" width="24" xmlns="http://www.w3.org/2000/svg"><g fill="#801ed7"><path clip-rule="evenodd" d="m19.1496 14.1995 2.1869.7815c.3979.1421.6635.5191.6635.9417v2.5023c0 1.539-1.0564 2.6898-1.8595 3.3596-.4264.3557-.8476.6313-1.1599.8173-.236.1406-.4154.2335-.4994.2755-.1684.0828-.7536.1004-.912.0248-.1875-.0921-.3703-.1934-.5498-.3003-.3123-.186-.7335-.4616-1.1599-.8173-.803-.6698-1.8595-1.8206-1.8595-3.3596v-2.5023c0-.4225.2655-.7994.6633-.9417l2.1859-.7815c.7432-.266 1.5572-.266 2.3004 0z" fill-rule="evenodd"/><path d="m15.2413 1h-6.4826c-.80496-.000012-1.46933-.000022-2.01052.04419-.5621.04593-1.07881.14449-1.56414.39179-.75265.38349-1.36457.99541-1.74806 1.74806-.2473.48533-.34586 1.00204-.39179 1.56414-.04421.54119-.0442 1.20554-.04419 2.01051v10.48261c-.00001.805-.00002 1.4693.04419 2.0105.04593.5621.14449 1.0788.39179 1.5642.38349.7526.99541 1.3645 1.74806 1.748.48533.2473 1.00204.3459 1.56414.3918.54119.0442 1.20554.0442 2.0105.0442h3.41132c.6478 0 .9718 0 1.1046-.0989.1307-.0971.1873-.1997.2-.3621.013-.1651-.1825-.4758-.5735-1.0973-.5083-.808-.9011-1.8173-.9011-3.0166v-2.5023c0-1.2675.7966-2.3982 1.99-2.8249l2.1859-.7815c1.1785-.4217 2.4674-.4219 3.646-.0004l.001.0004.0012.0004.1067.0382c.36.1286.54.1929.6837.1591.1257-.0296.2351-.1067.3053-.2151.0802-.124.0802-.3151.0802-.6974v-4.84292c0-.80496 0-1.46931-.0442-2.0105-.0459-.5621-.1445-1.07881-.3918-1.56414-.3835-.75265-.9954-1.36457-1.748-1.74806-.4854-.2473-1.0021-.34586-1.5642-.39179-.5412-.044212-1.2055-.044202-2.0105-.04419z"/></g></svg>

<svg width="24" height="24" viewBox="0 0 24 24" fill="none" xmlns="http://www.w3.org/2000/svg">
<path fill-rule="evenodd" clip-rule="evenodd" d="M19.1496 14.1995L21.3365 14.981C21.7344 15.1231 22 15.5001 22 15.9227V18.425C22 19.964 20.9436 21.1148 20.1405 21.7846C19.7141 22.1403 19.2929 22.4159 18.9806 22.6019C18.7446 22.7425 18.5652 22.8354 18.4812 22.8774C18.3128 22.9602 17.7276 22.9778 17.5692 22.9022C17.3817 22.8101 17.1989 22.7088 17.0194 22.6019C16.7071 22.4159 16.2859 22.1403 15.8595 21.7846C15.0565 21.1148 14 19.964 14 18.425V15.9227C14 15.5002 14.2655 15.1233 14.6633 14.981L16.8492 14.1995C17.5924 13.9335 18.4064 13.9335 19.1496 14.1995Z" fill="#801ED7"/>
<path d="M15.2413 1H8.7587C7.95374 0.999988 7.28937 0.999978 6.74818 1.04419C6.18608 1.09012 5.66937 1.18868 5.18404 1.43598C4.43139 1.81947 3.81947 2.43139 3.43598 3.18404C3.18868 3.66937 3.09012 4.18608 3.04419 4.74818C2.99998 5.28937 2.99999 5.95372 3 6.75869V17.2413C2.99999 18.0463 2.99998 18.7106 3.04419 19.2518C3.09012 19.8139 3.18868 20.3306 3.43598 20.816C3.81947 21.5686 4.43139 22.1805 5.18404 22.564C5.66937 22.8113 6.18608 22.9099 6.74818 22.9558C7.28937 23 7.95372 23 8.75868 23H12.17C12.8178 23 13.1418 23 13.2746 22.9011C13.4053 22.804 13.4619 22.7014 13.4746 22.539C13.4876 22.3739 13.2921 22.0632 12.9011 21.4417C12.3928 20.6337 12 19.6244 12 18.4251V15.9228C12 14.6553 12.7966 13.5246 13.99 13.0979L16.1759 12.3164C17.3544 11.8947 18.6433 11.8945 19.8219 12.316L19.8229 12.3164L19.8241 12.3168L19.9308 12.355C20.2908 12.4836 20.4708 12.5479 20.6145 12.5141C20.7402 12.4845 20.8496 12.4074 20.9198 12.299C21 12.175 21 11.9839 21 11.6016V6.75868C21 5.95372 21 5.28937 20.9558 4.74818C20.9099 4.18608 20.8113 3.66937 20.564 3.18404C20.1805 2.43139 19.5686 1.81947 18.816 1.43598C18.3306 1.18868 17.8139 1.09012 17.2518 1.04419C16.7106 0.999978 16.0463 0.999988 15.2413 1Z" fill="#801ED7"/>
</svg>
